X:1
T:General Ludd's March 
C:Fieldtown
M:6/8
L:1/8   
K:Gmix
P:A
dc |"G" B3/2A/G GED |"C" EGc "G" B2 A |"G" GED DEG |"A" A3- "D" Adc|
"G" B3/2A/G GED |"C" EGc "G" B2 A |"G" GED EGG |"G" G3- G2 D |
P:B
"G" GBd dBd |"C" edc "D" Hd2 c| "G" B3/2A/G GBd |"D" A3 Adc|
"G" B3/2A/G GED |"C" EGc "G" B2A| "G" GED EGG |"G" G3 D2E |
"F" =F2F "C" EDC |"D" D3 G2A |"G" Bdc "F" BG=F | "G" G3-G |]

%%textfont Times-Italic 12
%%begintext justify
arr. Alison S.  2019-10-27
%%endtext
